assets/img/braze_icons/watch-circle.svg

<svg fill="none" height="24" viewBox="0 0 24 24" width="24" xmlns="http://www.w3.org/2000/svg"><path clip-rule="evenodd" d="m13.4105 1h-2.8211c-.4382-.000013-.82047-.000026-1.13936.02368-.33967.02524-.67662.08087-1.01187.22738-.50657.22139-.94212.57846-1.25856 1.03178-.20942.3-.33004.6195-.42142.94762-.08578.30807-.16072.68283-.24666 1.11261l-.46192 2.30959c-1.27424 1.41702-2.04961 3.29163-2.04961 5.34734 0 2.0557.77535 3.9303 2.04956 5.3473l.46197 2.3098c.08594.4298.16088.8046.24666 1.1126.09138.3282.212.6477.42142.9477.31644.4533.75199.8103 1.25856 1.0317.33525.1465.6722.2022 1.01187.2274.31891.0237.70106.0237 1.13936.0237h2.8211c.4383 0 .8204 0 1.1394-.0237.3396-.0252.6766-.0809 1.0118-.2274.5066-.2214.9421-.5784 1.2586-1.0317.2094-.3.33-.6195.4214-.9477.0858-.308.1607-.6827.2466-1.1124l.462-2.3099c1.2743-1.417 2.0497-3.2916 2.0497-5.3474 0-2.05578-.7754-3.93045-2.0497-5.34748l-.462-2.30965c-.0859-.42968-.1608-.8044-.2466-1.11241-.0914-.32812-.212-.64762-.4214-.94762-.3165-.45332-.752-.81039-1.2586-1.03178-.3352-.14651-.6722-.20214-1.0118-.22738-.3189-.023706-.7012-.023693-1.1394-.02368zm-1.4105 3c-1.2732 0-2.47698.29744-3.54557.82662l.01161-.05807c.09453-.47261.1554-.77371.21885-1.00157.06007-.21572.10487-.29665.13468-.33937.10548-.1511.25067-.27012.41953-.34392.04772-.02086.13588-.04892.35918-.06552.23589-.01753.54302-.01817 1.02502-.01817h2.7533c.4819 0 .7891.00064 1.025.01817.2233.0166.3115.04466.3592.06552.1689.0738.314.19282.4195.34392.0298.04272.0746.12365.1347.33937.0635.22786.1243.52895.2189 1.00157l.0116.05802c-1.0686-.52915-2.2723-.82657-3.5455-.82657zm-3.53396 15.2316-.01165-.0582c1.0686.5292 2.27241.8266 3.54561.8266s2.4769-.2974 3.5455-.8266l-.0116.0582c-.0946.4727-.1554.7738-.2189 1.0016-.0601.2157-.1049.2967-.1347.3394-.1055.1511-.2506.2701-.4195.3439-.0477.0209-.1359.0489-.3592.0655-.2359.0176-.5431.0182-1.025.0182h-2.7533c-.482 0-.78913-.0006-1.02502-.0182-.2233-.0166-.31146-.0446-.35918-.0655-.16886-.0738-.31405-.1928-.41953-.3439-.02981-.0427-.07461-.1237-.13468-.3394-.06345-.2278-.12432-.5289-.21885-1.0016zm4.53396-10.2316c0-.55228-.4477-1-1-1s-1 .44772-1 1v3c0 .2652.1054.5196.2929.7071l1.5 1.5c.3905.3905 1.0237.3905 1.4142 0s.3905-1.0237 0-1.4142l-1.2071-1.2071z" fill="#801ed7" fill-rule="evenodd"/></svg>

<svg width="24" height="24" viewBox="0 0 24 24" fill="none" xmlns="http://www.w3.org/2000/svg">
<path fill-rule="evenodd" clip-rule="evenodd" d="M13.4105 1H10.5894C10.1512 0.999987 9.76893 0.999974 9.45004 1.02368C9.11037 1.04892 8.77342 1.10455 8.43817 1.25106C7.9316 1.47245 7.49605 1.82952 7.17961 2.28284C6.97019 2.58284 6.84957 2.90234 6.75819 3.23046C6.67241 3.53853 6.59747 3.91329 6.51153 4.34307L6.04961 6.65266C4.77537 8.06968 4 9.94429 4 12C4 14.0557 4.77535 15.9303 6.04956 17.3473L6.51153 19.6571C6.59747 20.0869 6.67241 20.4617 6.75819 20.7697C6.84957 21.0979 6.97019 21.4174 7.17961 21.7174C7.49605 22.1707 7.9316 22.5277 8.43817 22.7491C8.77342 22.8956 9.11037 22.9513 9.45004 22.9765C9.76895 23.0002 10.1511 23.0002 10.5894 23.0002H13.4105C13.8488 23.0002 14.2309 23.0002 14.5499 22.9765C14.8895 22.9513 15.2265 22.8956 15.5617 22.7491C16.0683 22.5277 16.5038 22.1707 16.8203 21.7174C17.0297 21.4174 17.1503 21.0979 17.2417 20.7697C17.3275 20.4617 17.4024 20.087 17.4883 19.6573L17.9503 17.3474C19.2246 15.9304 20 14.0558 20 12C20 9.94422 19.2246 8.06955 17.9503 6.65252L17.4883 4.34287C17.4024 3.91319 17.3275 3.53847 17.2417 3.23046C17.1503 2.90234 17.0297 2.58284 16.8203 2.28284C16.5038 1.82952 16.0683 1.47245 15.5617 1.25106C15.2265 1.10455 14.8895 1.04892 14.5499 1.02368C14.231 0.999974 13.8487 0.999987 13.4105 1ZM12 4C10.7268 4 9.52302 4.29744 8.45443 4.82662L8.46604 4.76855C8.56057 4.29594 8.62144 3.99484 8.68489 3.76698C8.74496 3.55126 8.78976 3.47033 8.81957 3.42761C8.92505 3.27651 9.07024 3.15749 9.2391 3.08369C9.28682 3.06283 9.37498 3.03477 9.59828 3.01817C9.83417 3.00064 10.1413 3 10.6233 3H13.3766C13.8585 3 14.1657 3.00064 14.4016 3.01817C14.6249 3.03477 14.7131 3.06283 14.7608 3.08369C14.9297 3.15749 15.0748 3.27651 15.1803 3.42761C15.2101 3.47033 15.2549 3.55126 15.315 3.76698C15.3785 3.99484 15.4393 4.29593 15.5339 4.76855L15.5455 4.82657C14.4769 4.29742 13.2732 4 12 4ZM8.46604 19.2316L8.45439 19.1734C9.52299 19.7026 10.7268 20 12 20C13.2732 20 14.4769 19.7026 15.5455 19.1734L15.5339 19.2316C15.4393 19.7043 15.3785 20.0054 15.315 20.2332C15.2549 20.4489 15.2101 20.5299 15.1803 20.5726C15.0748 20.7237 14.9297 20.8427 14.7608 20.9165C14.7131 20.9374 14.6249 20.9654 14.4016 20.982C14.1657 20.9996 13.8585 21.0002 13.3766 21.0002H10.6233C10.1413 21.0002 9.83417 20.9996 9.59828 20.982C9.37498 20.9654 9.28682 20.9374 9.2391 20.9165C9.07024 20.8427 8.92505 20.7237 8.81957 20.5726C8.78976 20.5299 8.74496 20.4489 8.68489 20.2332C8.62144 20.0054 8.56057 19.7043 8.46604 19.2316ZM13 9C13 8.44772 12.5523 8 12 8C11.4477 8 11 8.44772 11 9V12C11 12.2652 11.1054 12.5196 11.2929 12.7071L12.7929 14.2071C13.1834 14.5976 13.8166 14.5976 14.2071 14.2071C14.5976 13.8166 14.5976 13.1834 14.2071 12.7929L13 11.5858V9Z" fill="#801ED7"/>
</svg>
